assets/icons/calendar.svg

<svg width="16" height="16" viewBox="0 0 16 16" fill="none" xmlns="http://www.w3.org/2000/svg">
<path d="M12.963 2.70312H3.37037C2.61354 2.70312 2 3.31666 2 4.0735V13.6661C2 14.4229 2.61354 15.0365 3.37037 15.0365H12.963C13.7198 15.0365 14.3333 14.4229 14.3333 13.6661V4.0735C14.3333 3.31666 13.7198 2.70312 12.963 2.70312Z" stroke="#666666" stroke-width="1.5" stroke-linecap="round" stroke-linejoin="round"/>
<path d="M10.9062 1.33301V4.07375" stroke="#666666" stroke-width="1.5" stroke-linecap="round" stroke-linejoin="round"/>
<path d="M5.42676 1.33301V4.07375" stroke="#666666" stroke-width="1.5" stroke-linecap="round" stroke-linejoin="round"/>
<path d="M2 6.81445H14.3333" stroke="#666666" stroke-width="1.5" stroke-linecap="round" stroke-linejoin="round"/>
</svg>

<svg xmlns="http://www.w3.org/2000/svg" width="16" height="16" fill="none" data-c="1"><path stroke="#666" stroke-linecap="round" stroke-linejoin="round" stroke-width="1.5" d="M12.963 2.703H3.37A1.37 1.37 0 0 0 2 4.073v9.593c0 .757.614 1.37 1.37 1.37h9.593a1.37 1.37 0 0 0 1.37-1.37V4.073a1.37 1.37 0 0 0-1.37-1.37M10.906 1.333v2.74M5.427 1.333v2.74M2 6.814h12.333"/></svg>
